elementary-add/apps/48/meld.svg

<?xml version="1.0" encoding="UTF-8" standalone="no"?>
<!-- Created with Inkscape (http://www.inkscape.org/) -->

<svg
   xmlns:dc="http://purl.org/dc/elements/1.1/"
   xmlns:cc="http://creativecommons.org/ns#"
   xmlns:rdf="http://www.w3.org/1999/02/22-rdf-syntax-ns#"
   xmlns:svg="http://www.w3.org/2000/svg"
   xmlns="http://www.w3.org/2000/svg"
   xmlns:xlink="http://www.w3.org/1999/xlink"
   xmlns:sodipodi="http://sodipodi.sourceforge.net/DTD/sodipodi-0.dtd"
   xmlns:inkscape="http://www.inkscape.org/namespaces/inkscape"
   version="1.1"
   width="48"
   height="48"
   id="svg3143"
   inkscape:version="0.91 r"
   sodipodi:docname="meld.svg">
  <sodipodi:namedview
     pagecolor="#ffffff"
     bordercolor="#666666"
     borderopacity="1"
     objecttolerance="10"
     gridtolerance="10"
     guidetolerance="10"
     inkscape:pageopacity="0"
     inkscape:pageshadow="2"
     inkscape:window-width="1600"
     inkscape:window-height="845"
     id="namedview46"
     showgrid="false"
     inkscape:zoom="5.71"
     inkscape:cx="-51.08817"
     inkscape:cy="18.511954"
     inkscape:window-x="0"
     inkscape:window-y="30"
     inkscape:window-maximized="1"
     inkscape:current-layer="svg3143"
     showguides="false" />
  <defs
     id="defs3145">
    <linearGradient
       x1="23.99999"
       y1="4.999989"
       x2="23.99999"
       y2="43"
       id="linearGradient4181"
       xlink:href="#linearGradient3924-3"
       gradientUnits="userSpaceOnUse"
       gradientTransform="translate(5.3e-6,1.0000015)" />
    <linearGradient
       id="linearGradient3924-3">
      <stop
         id="stop3926-7"
         style="stop-color:#ffffff;stop-opacity:1"
         offset="0" />
      <stop
         id="stop3928-3"
         style="stop-color:#ffffff;stop-opacity:0.23529412"
         offset="0.06316455" />
      <stop
         id="stop3930-7"
         style="stop-color:#ffffff;stop-opacity:0.15686275"
         offset="0.95056331" />
      <stop
         id="stop3932-1"
         style="stop-color:#ffffff;stop-opacity:0.39215687"
         offset="1" />
    </linearGradient>
    <linearGradient
       x1="167.98311"
       y1="8.50811"
       x2="167.98311"
       y2="54.780239"
       id="linearGradient4907-4"
       xlink:href="#linearGradient5803-2-7"
       gradientUnits="userSpaceOnUse"
       gradientTransform="matrix(0.7037037,0,0,0.7037037,-39.333369,2.4814295)" />
    <linearGradient
       id="linearGradient5803-2-7">
      <stop
         id="stop5805-3-6"
         style="stop-color:#fffdf3;stop-opacity:1"
         offset="0" />
      <stop
         id="stop5807-0-0"
         style="stop-color:#fbebeb;stop-opacity:1"
         offset="1" />
    </linearGradient>
    <radialGradient
       cx="8.276144"
       cy="9.9941158"
       r="12.671875"
       fx="8.276144"
       fy="9.9941158"
       id="radialGradient6305"
       xlink:href="#linearGradient3242"
       gradientUnits="userSpaceOnUse"
       gradientTransform="matrix(0,6.6677582,-8.1858766,0,105.8829,-59.462774)" />
    <linearGradient
       id="linearGradient3242">
      <stop
         id="stop3244"
         style="stop-color:#7ec1f8;stop-opacity:1;"
         offset="0" />
      <stop
         id="stop3246"
         style="stop-color:#4f97e3;stop-opacity:1;"
         offset="0.26238" />
      <stop
         id="stop3248"
         style="stop-color:#2674c6;stop-opacity:1;"
         offset="0.66093999" />
      <stop
         id="stop3250"
         style="stop-color:#0b4169;stop-opacity:1;"
         offset="1" />
    </linearGradient>
    <radialGradient
       cx="4.9929786"
       cy="43.5"
       r="2.5"
       fx="4.9929786"
       fy="43.5"
       id="radialGradient3013"
       xlink:href="#linearGradient3688-166-749"
       gradientUnits="userSpaceOnUse"
       gradientTransform="matrix(2.003784,0,0,1.4,27.98813,-17.4)" />
    <linearGradient
       id="linearGradient3688-166-749">
      <stop
         id="stop2883"
         style="stop-color:#181818;stop-opacity:1"
         offset="0" />
      <stop
         id="stop2885"
         style="stop-color:#181818;stop-opacity:0"
         offset="1" />
    </linearGradient>
    <radialGradient
       cx="4.9929786"
       cy="43.5"
       r="2.5"
       fx="4.9929786"
       fy="43.5"
       id="radialGradient3015"
       xlink:href="#linearGradient3688-464-309"
       gradientUnits="userSpaceOnUse"
       gradientTransform="matrix(2.003784,0,0,1.4,-20.01187,-104.4)" />
    <linearGradient
       id="linearGradient3688-464-309">
      <stop
         id="stop2889"
         style="stop-color:#181818;stop-opacity:1"
         offset="0" />
      <stop
         id="stop2891"
         style="stop-color:#181818;stop-opacity:0"
         offset="1" />
    </linearGradient>
    <linearGradient
       id="linearGradient3702-501-757">
      <stop
         id="stop2895"
         style="stop-color:#181818;stop-opacity:0"
         offset="0" />
      <stop
         id="stop2897"
         style="stop-color:#181818;stop-opacity:1"
         offset="0.5" />
      <stop
         id="stop2899"
         style="stop-color:#181818;stop-opacity:0"
         offset="1" />
    </linearGradient>
    <linearGradient
       x1="25.058096"
       y1="47.027729"
       x2="25.058096"
       y2="39.999443"
       id="linearGradient3141"
       xlink:href="#linearGradient3702-501-757"
       gradientUnits="userSpaceOnUse" />
    <radialGradient
       inkscape:collect="always"
       xlink:href="#linearGradient3688-166-749"
       id="radialGradient3030"
       gradientUnits="userSpaceOnUse"
       gradientTransform="matrix(2.003784,0,0,1.4,27.98813,-17.4)"
       cx="4.9929786"
       cy="43.5"
       fx="4.9929786"
       fy="43.5"
       r="2.5" />
    <radialGradient
       inkscape:collect="always"
       xlink:href="#linearGradient3688-464-309"
       id="radialGradient3032"
       gradientUnits="userSpaceOnUse"
       gradientTransform="matrix(2.003784,0,0,1.4,-20.01187,-104.4)"
       cx="4.9929786"
       cy="43.5"
       fx="4.9929786"
       fy="43.5"
       r="2.5" />
    <linearGradient
       inkscape:collect="always"
       xlink:href="#linearGradient3702-501-757"
       id="linearGradient3034"
       gradientUnits="userSpaceOnUse"
       x1="25.058096"
       y1="47.027729"
       x2="25.058096"
       y2="39.999443" />
    <radialGradient
       inkscape:collect="always"
       xlink:href="#linearGradient3242"
       id="radialGradient3036"
       gradientUnits="userSpaceOnUse"
       gradientTransform="matrix(0,6.6677582,-8.1858766,0,105.8829,-59.462774)"
       cx="8.276144"
       cy="9.9941158"
       fx="8.276144"
       fy="9.9941158"
       r="12.671875" />
    <linearGradient
       inkscape:collect="always"
       xlink:href="#linearGradient5803-2-7"
       id="linearGradient3038"
       gradientUnits="userSpaceOnUse"
       gradientTransform="matrix(0.7037037,0,0,0.7037037,-39.333369,2.4814295)"
       x1="167.98311"
       y1="8.50811"
       x2="167.98311"
       y2="54.780239" />
    <linearGradient
       inkscape:collect="always"
       xlink:href="#linearGradient3924-3"
       id="linearGradient3040"
       gradientUnits="userSpaceOnUse"
       gradientTransform="translate(5.3e-6,1.0000015)"
       x1="23.99999"
       y1="4.999989"
       x2="23.99999"
       y2="43" />
    <linearGradient
       inkscape:collect="always"
       xlink:href="#linearGradient3924-3"
       id="linearGradient3044"
       gradientUnits="userSpaceOnUse"
       gradientTransform="translate(5.3e-6,1.0000015)"
       x1="23.99999"
       y1="4.999989"
       x2="23.99999"
       y2="43" />
    <linearGradient
       inkscape:collect="always"
       xlink:href="#linearGradient5803-2-7"
       id="linearGradient3048"
       gradientUnits="userSpaceOnUse"
       gradientTransform="matrix(0.7037037,0,0,0.7037037,-39.333369,2.4814295)"
       x1="167.98311"
       y1="8.50811"
       x2="167.98311"
       y2="54.780239" />
    <radialGradient
       inkscape:collect="always"
       xlink:href="#linearGradient3242"
       id="radialGradient3053"
       gradientUnits="userSpaceOnUse"
       gradientTransform="matrix(0,6.6677582,-8.1858766,0,105.8829,-59.462774)"
       cx="8.276144"
       cy="9.9941158"
       fx="8.276144"
       fy="9.9941158"
       r="12.671875" />
    <linearGradient
       inkscape:collect="always"
       xlink:href="#linearGradient3242"
       id="linearGradient3822"
       x1="-96.893837"
       y1="-41.815022"
       x2="-99.388855"
       y2="194.26593"
       gradientUnits="userSpaceOnUse"
       gradientTransform="matrix(0.32644585,0,0,0.32644585,55.821581,18.116968)" />
    <linearGradient
       inkscape:collect="always"
       xlink:href="#linearGradient2867-449-88-871-390-598-476-591-434-148"
       id="linearGradient3058"
       gradientUnits="userSpaceOnUse"
       x1="23"
       y1="20"
       x2="23"
       y2="41" />
    <linearGradient
       id="linearGradient2867-449-88-871-390-598-476-591-434-148">
      <stop
         offset="0"
         style="stop-color:#51cfee;stop-opacity:1"
         id="stop4627" />
      <stop
         offset="0.26238"
         style="stop-color:#49a3d2;stop-opacity:1"
         id="stop4629" />
      <stop
         offset="0.704952"
         style="stop-color:#3470b4;stop-opacity:1"
         id="stop4631" />
      <stop
         offset="1"
         style="stop-color:#1b5699;stop-opacity:1"
         id="stop4633" />
    </linearGradient>
    <linearGradient
       inkscape:collect="always"
       xlink:href="#linearGradient3332-412-419-652-471-761-410-156-661-505"
       id="linearGradient3060"
       gradientUnits="userSpaceOnUse"
       x1="35"
       y1="32.035667"
       x2="35"
       y2="18" />
    <linearGradient
       id="linearGradient3332-412-419-652-471-761-410-156-661-505">
      <stop
         offset="0"
         style="stop-color:#205286;stop-opacity:1;"
         id="stop8032" />
      <stop
         offset="1"
         style="stop-color:#5492be;stop-opacity:1;"
         id="stop8034" />
    </linearGradient>
    <linearGradient
       inkscape:collect="always"
       xlink:href="#linearGradient2238"
       id="linearGradient3062"
       gradientUnits="userSpaceOnUse"
       x1="32.817135"
       y1="19.818853"
       x2="32.817135"
       y2="30.184839" />
    <linearGradient
       id="linearGradient2238">
      <stop
         offset="0"
         style="stop-color:#ffffff;stop-opacity:1"
         id="stop2240" />
      <stop
         offset="1"
         style="stop-color:#ffffff;stop-opacity:0"
         id="stop2242" />
    </linearGradient>
    <linearGradient
       y2="30.184839"
       x2="32.817135"
       y1="19.818853"
       x1="32.817135"
       gradientUnits="userSpaceOnUse"
       id="linearGradient3093"
       xlink:href="#linearGradient2238"
       inkscape:collect="always" />
    <linearGradient
       inkscape:collect="always"
       xlink:href="#linearGradient2238"
       id="linearGradient3075"
       gradientUnits="userSpaceOnUse"
       x1="32.817135"
       y1="19.818853"
       x2="32.817135"
       y2="30.184839"
       gradientTransform="translate(0.52261275,-0.84678633)" />
  </defs>
  <metadata
     id="metadata3148">
    <rdf:RDF>
      <cc:Work
         rdf:about="">
        <dc:format>image/svg+xml</dc:format>
        <dc:type
           rdf:resource="http://purl.org/dc/dcmitype/StillImage" />
        <dc:title />
      </cc:Work>
    </rdf:RDF>
  </metadata>
  <g
     style="opacity:0.6"
     id="g3712-5"
     transform="matrix(1.1578952,0,0,0.6428571,-3.789476,16.035716)">
    <rect
       style="fill:url(#radialGradient3030);fill-opacity:1;stroke:none"
       id="rect2801-3"
       y="40"
       x="38"
       height="7"
       width="5" />
    <rect
       style="fill:url(#radialGradient3032);fill-opacity:1;stroke:none"
       id="rect3696-6"
       transform="scale(-1,-1)"
       y="-47"
       x="-10"
       height="7"
       width="5" />
    <rect
       style="fill:url(#linearGradient3034);fill-opacity:1;stroke:none"
       id="rect3700-4"
       y="40"
       x="10"
       height="7.0000005"
       width="28" />
  </g>
  <rect
     width="39"
     height="39"
     rx="2"
     ry="2"
     x="4.5"
     y="5.5"
     id="rect4257"
     style="color:#000000;display:inline;overflow:visible;visibility:visible;fill:#ffb152;fill-opacity:1;fill-rule:nonzero;stroke:none;stroke-width:0.99999994;marker:none;enable-background:accumulate" />
  <path
     style="color:#000000;display:inline;overflow:visible;visibility:visible;fill:url(#radialGradient3053);fill-opacity:1;fill-rule:nonzero;stroke:none;stroke-width:0.99999994;marker:none;enable-background:accumulate"
     d="m 6.5,5.5 c -1.108,0 -2,0.892 -2,2 l 0,5.730469 C 6.2394515,10.235031 8.5688539,7.6066689 11.320312,5.5 Z m 12.142578,0 C 10.49597,8.9527641 4.5887367,17.000151 4.8105469,26.269531 5.0007418,34.217724 9.8892992,41.311756 16.777344,44.5 l 15.876953,0 c 6.306727,-2.984377 10.79799,-9.379862 10.529297,-16.691406 -0.318908,-8.677952 -7.653776,-16.089163 -16.427735,-15.689453 -7.535293,0.34328 -13.966614,6.754202 -13.533203,14.375 0.363609,6.393448 5.851274,11.846001 12.316406,11.380859 5.252692,-0.377912 9.72986,-4.942636 9.236329,-10.248047 -0.382639,-4.113321 -4.021623,-7.621066 -8.160157,-7.105469 -2.975261,0.370672 -5.525534,3.083511 -5.001953,6.041016 0.162424,0.917465 0.742825,1.862349 1.47461,2.427734 0.731784,0.565384 1.5389,0.895873 2.36914,0.533204 1.219185,-0.53257 1.751423,-1.273498 2.496094,-2.361329 l -3.705078,-0.125 c 0.02483,-0.732481 0.44787,-1.689209 1.189453,-2.136718 0.741583,-0.44751 1.440548,-0.400358 1.958984,-0.294922 1.036873,0.210872 1.751919,0.5173 2.404297,1.623047 0.882442,1.495691 0.596428,3.294549 -0.15625,4.478515 -0.752677,1.183967 -1.86211,2.01098 -3.183593,2.382813 -2.075085,0.583878 -4.146697,-0.0133 -5.638672,-1.166016 -1.491975,-1.152716 -2.524097,-2.832019 -2.857422,-4.714844 -0.931482,-5.261569 3.271744,-9.750367 8.191406,-10.363281 6.384157,-0.795367 11.743542,4.363257 12.308594,10.4375 C 39.163883,34.797802 33.033879,41.05034 25.806641,41.570312 17.156907,42.192629 9.9999573,35.083875 9.5234375,26.705078 8.9667857,16.917295 17.058634,8.8520867 26.587891,8.4179688 33.633814,8.0969823 39.85379,11.767193 43.5,17.269531 L 43.5,7.5 c 0,-1.108 -0.892,-2 -2,-2 z M 4.5,38.130859 4.5,42.5 c 0,1.108 0.892,2 2,2 l 3.3867188,0 C 7.7518984,42.706659 5.9263035,40.54841 4.5,38.130859 Z m 39,1.679688 C 42.364603,41.558661 40.976095,43.134183 39.398438,44.5 L 41.5,44.5 c 1.108,0 2,-0.892 2,-2 z"
     id="rect5505-21"
     inkscape:connector-curvature="0"
     sodipodi:nodetypes="ssccscsccsssssssssccsssssssssssscssccssccccssc" />
  <rect
     style="opacity:0.5;fill:none;stroke:url(#linearGradient3044);stroke-width:1;stroke-linecap:round;stroke-linejoin:round;stroke-miterlimit:4;stroke-opacity:1;stroke-dasharray:none;stroke-dashoffset:0"
     id="rect6741-2"
     y="6.4999924"
     x="5.5"
     ry="1"
     rx="1"
     height="37"
     width="37" />
  <rect
     style="opacity:0.4;color:#000000;fill:none;stroke:#0035a4;stroke-width:1;stroke-linecap:round;stroke-linejoin:round;stroke-miterlimit:4;stroke-opacity:1;stroke-dasharray:none;stroke-dashoffset:0;marker:none;visibility:visible;display:inline;overflow:visible;enable-background:accumulate"
     id="rect5505-21-1"
     y="5.5"
     x="4.5"
     ry="2"
     rx="2"
     height="39"
     width="39" />
</svg>

<?xml version="1.0" encoding="UTF-8" standalone="no"?>
<!-- Created with Inkscape (http://www.inkscape.org/) -->
<svg id="svg3143" xmlns:rdf="http://www.w3.org/1999/02/22-rdf-syntax-ns#" xmlns="http://www.w3.org/2000/svg" height="48" width="48" version="1.1" xmlns:cc="http://creativecommons.org/ns#" xmlns:xlink="http://www.w3.org/1999/xlink" xmlns:dc="http://purl.org/dc/elements/1.1/">
 <defs id="defs3145">
  <radialGradient id="radialGradient3030" gradientUnits="userSpaceOnUse" cy="43.5" cx="4.993" gradientTransform="matrix(2.0038 0 0 1.4 27.988 -17.4)" r="2.5">
   <stop id="stop2883" stop-color="#181818" offset="0"/>
   <stop id="stop2885" stop-color="#181818" stop-opacity="0" offset="1"/>
  </radialGradient>
  <radialGradient id="radialGradient3032" gradientUnits="userSpaceOnUse" cy="43.5" cx="4.993" gradientTransform="matrix(2.0038 0 0 1.4 -20.012 -104.4)" r="2.5">
   <stop id="stop2889" stop-color="#181818" offset="0"/>
   <stop id="stop2891" stop-color="#181818" stop-opacity="0" offset="1"/>
  </radialGradient>
  <linearGradient id="linearGradient3034" y2="39.999" gradientUnits="userSpaceOnUse" x2="25.058" y1="47.028" x1="25.058">
   <stop id="stop2895" stop-color="#181818" stop-opacity="0" offset="0"/>
   <stop id="stop2897" stop-color="#181818" offset=".5"/>
   <stop id="stop2899" stop-color="#181818" stop-opacity="0" offset="1"/>
  </linearGradient>
  <linearGradient id="linearGradient3044" y2="43" gradientUnits="userSpaceOnUse" x2="24" gradientTransform="translate(.0000053 1)" y1="5" x1="24">
   <stop id="stop3926-7" stop-color="#fff" offset="0"/>
   <stop id="stop3928-3" stop-color="#fff" stop-opacity=".23529" offset=".063165"/>
   <stop id="stop3930-7" stop-color="#fff" stop-opacity=".15686" offset=".95056"/>
   <stop id="stop3932-1" stop-color="#fff" stop-opacity=".39216" offset="1"/>
  </linearGradient>
  <radialGradient id="radialGradient3053" gradientUnits="userSpaceOnUse" cy="9.9941" cx="8.2761" gradientTransform="matrix(0 6.6678 -8.1859 0 105.88 -59.463)" r="12.672">
   <stop id="stop3244" stop-color="#7ec1f8" offset="0"/>
   <stop id="stop3246" stop-color="#4f97e3" offset=".26238"/>
   <stop id="stop3248" stop-color="#2674c6" offset=".66094"/>
   <stop id="stop3250" stop-color="#0b4169" offset="1"/>
  </radialGradient>
 </defs>
 <metadata id="metadata3148">
  <rdf:RDF>
   <cc:Work rdf:about="">
    <dc:format>image/svg+xml</dc:format>
    <dc:type rdf:resource="http://purl.org/dc/dcmitype/StillImage"/>
    <dc:title/>
   </cc:Work>
  </rdf:RDF>
 </metadata>
 <g id="g3712-5" opacity=".6" transform="matrix(1.1579 0 0 .64286 -3.7895 16.036)">
  <rect id="rect2801-3" height="7" width="5" y="40" x="38" fill="url(#radialGradient3030)"/>
  <rect id="rect3696-6" transform="scale(-1)" height="7" width="5" y="-47" x="-10" fill="url(#radialGradient3032)"/>
  <rect id="rect3700-4" height="7" width="28" y="40" x="10" fill="url(#linearGradient3034)"/>
 </g>
 <rect id="rect4257" style="color:#000000" rx="2" ry="2" height="39" width="39" y="5.5" x="4.5" fill="#ffb152"/>
 <path id="rect5505-21" style="color:#000000" d="m6.5 5.5c-1.108 0-2 0.892-2 2v5.7305c1.7395-2.995 4.0689-5.6233 6.82-7.73zm12.143 0c-8.147 3.4528-14.054 11.5-13.832 20.77 0.1897 7.948 5.0783 15.042 11.966 18.23h15.877c6.3067-2.9844 10.798-9.3799 10.529-16.691-0.31891-8.678-7.6538-16.089-16.428-15.689-7.5353 0.34328-13.967 6.7542-13.533 14.375 0.36361 6.3934 5.8513 11.846 12.316 11.381 5.2527-0.37791 9.7299-4.9426 9.2363-10.248-0.38264-4.1133-4.0216-7.6211-8.1602-7.1055-2.9753 0.37067-5.5255 3.0835-5.002 6.041 0.16242 0.91746 0.74282 1.8623 1.4746 2.4277 0.73178 0.56538 1.5389 0.89587 2.3691 0.5332 1.2192-0.53257 1.7514-1.2735 2.4961-2.3613l-3.7051-0.125c0.02483-0.73248 0.44787-1.6892 1.1895-2.1367 0.74158-0.44751 1.4405-0.40036 1.959-0.29492 1.0369 0.21087 1.7519 0.5173 2.4043 1.623 0.88244 1.4957 0.59643 3.2945-0.15625 4.4785s-1.8621 2.011-3.1836 2.3828c-2.0751 0.58388-4.1467-0.0133-5.6387-1.166s-2.5241-2.832-2.8574-4.7148c-0.93148-5.2616 3.2717-9.7504 8.1914-10.363 6.3842-0.79537 11.744 4.3633 12.309 10.438 0.7 7.513-5.43 13.765-12.657 14.285-8.65 0.623-15.807-6.486-16.284-14.865-0.5562-9.788 7.536-17.853 17.065-18.287 7.046-0.321 13.266 3.349 16.912 8.852v-9.77c0-1.108-0.892-2-2-2zm-14.143 32.631v4.369c0 1.108 0.892 2 2 2h3.3867c-2.1348-1.793-3.9604-3.952-5.3867-6.369zm39 1.6797c-1.135 1.748-2.524 3.323-4.102 4.689h2.102c1.108 0 2-0.892 2-2z" fill="url(#radialGradient3053)"/>
 <rect id="rect6741-2" opacity=".5" stroke-linejoin="round" rx="1" ry="1" height="37" width="37" stroke="url(#linearGradient3044)" stroke-linecap="round" y="6.5" x="5.5" fill="none"/>
 <rect id="rect5505-21-1" opacity=".4" stroke-linejoin="round" style="color:#000000" rx="2" ry="2" height="39" width="39" stroke="#0035a4" stroke-linecap="round" y="5.5" x="4.5" fill="none"/>
</svg>
